X:105
T:Katie Bairdie
M:4/4
L:1/8
R:strathspey
Q:1/4=90
K:D
|a2 a>g f>g a2|e>f g>f e>f g2|a2 a>g f>g a2|d>e f>d e2d3/2 z/2|
a2 a>g f>g a2|e>f g>f e>f g2|a2 a>g f>g a2|d>e f>d e2d3/2 z/2|
f>d A>d f>d f2|g>e c>e g>e g2|f>d A>d f>d f2|d>e f>d e2d3/2 z/2|
f>d A>d f>d f2|g>e c>e g>e g2|f>d A>d f>d f2|d>e f>d e2d2|
